X: 2055
T: SCHICHALLION
C:
Q: "Strathspey."
R: Strathspey.
%R: strathspey
B: James Kerr "Merry Melodies" v.2 p.9 #55
Z: 2016 John Chambers <jc:trillian.mit.edu>
M: C
L: 1/16
%%slurgraces yes
%%graceslurs yes
K: Am
uG2 |\
vEA3A3uB vc3vAuB4 | vBG3G3uc BcdB GB3 |\
c3AB3G AAA2 {AB}c4 | g3e edcB cA3 A2 ::\
uB2 |\
ccc2 uc3ud (cd)e^f g4 |
vG2G2d3uc BcdB G3uB |\
[1 ccc2 uc3ud (cd)e^f ug3ua | g3e edcB cA3 A2 |\
[2 {AB}c3ABG3 AAA2 {AB}c4  | g3e edcB cA3 A2 |]
